X: 7555
T: Cock O' The North
R: jig
M: 6/8
K: Dmajor
|:d2A B2A|d2A B2A|F2F FED|E3 E3|
d2A B2A|d2A B2A|F2F EFE|D3 D3:|
|:F2F FED|F2A B2A|F2F FED|E3 E3|
F2F FED|F2A B2A|F2F EFE|D3 D3:|

